X:1
T:Leonburg, LM
T:Leonburg, LM
T:German Tune, before 1899
T:Public Domain Courtesy of the Cyber Hymnal™
C:German Tune, before 1899
Z:Public Domain
Z:Courtesy of the Cyber Hymnal™
%%score ( 1 2 ) ( 3 4 )
L:1/8
Q:1/4=106
M:4/4
K:Bb
V:1 treble 
V:2 treble 
V:3 bass 
V:4 bass 
V:1
 [FB]2 | [Fd]2 [Fc]2 [Ee]2 [Fd]2 | [Gc]2 c2 [DB]2 [Fd]2 | [GB]2 [=EG]2 [Fc]2 [GB]2 | %4
 [FA]2 [=EG]2 F2 F2 x | [FB]2 _A2 [EG]2 [FG]2 | [Ee]2 [Gc]2 [FA]2 [Fc]2 | [Fd]2 [FB]2 [EG]2 [Ee]2 | %8
 d2 [Ac]2 B2 |] %9
V:2
 x2 | x8 | x2 (FE) x4 | x8 | x4 F2 F2 x | x2 (EF) x4 | x8 | x8 | (FG) x B2 x |] %9
V:3
 [B,,D]2 | B,2 [F,A,]2 [C,G,]2 [D,B,]2 | [E,B,]2 [F,A,]2 [B,,B,]2 B,2 | [G,D]2 C2 [A,C]2 [=E,C]2 | %4
 C3 (z B,) [F,A,]2 [E,A,]2 | [D,B,]2 ([C,C][D,B,]) [E,B,]2 [D,=B,]2 | %6
 [C,C]2 [E,C]2 [F,C]2 [F,A,]2 | B,2 [D,B,]2 [E,B,]2 [C,C]2 | B,2 [F,E]2 [B,,D]2 |] %9
V:4
 x2 | B,2 x6 | x6 B,2 | x2 (CB,) x4 | F,2 C,2 x5 | x8 | x8 | B,2 x6 | (D,E,) x4 |] %9

